X:1
T:The Final Trawl
M:2/4
L:1/4
K:C
 z C/2D/2| E E| E2| D3/2 C/2| D E| C2-| C G| A3/2 c/2| A2-| G3/2 E/2|\
 G3/2 G/2| E2-| E2-| E G/2G/2| G A| E2| D C| D E| C2-| C2-| C A,/2C/2|\
 D3/2 E/2| D3/2- C/2-| A,3/2 G,/2| A,3/2 C/2| G,2-| G,2-| G, z|
